X:1
T:Title
L:1/8
M:6/8
I:linebreak $
K:G
V:1 treble nm="Voice"
V:1
"G" B2 B AGA |[M:9/8] BDD GBd efg |[M:6/8] dBB BAG |"D" FAB AFD |"G" B2 B AGA | %5
[M:9/8] BDD GBd efg |[M:6/8] dBB BAF |1"D" AcB"G" G2 D :|2"D" AcB"G" GBc |:"G" ded"C" cBc | %10
"D" def"G" g2 e | dBB BAG |"D" FAB ABc |"G" ded"C" cBc |"D" def"G" g2 e | dBB BAF |1 %16
"D" AcB"G" GBc :|2"D" AcB"G" G2 D |] %18
